public/img/field-13.svg

<svg width="64" height="65" viewBox="0 0 64 65" fill="none" xmlns="http://www.w3.org/2000/svg">
<ellipse cx="35.5" cy="51" rx="13.5" ry="14" fill="#E30020"/>
<g clip-path="url(#clip0)">
<path d="M59.1984 19.2018H54.9319C54.6826 19.2017 54.441 19.2887 54.2493 19.4482L48.1461 24.5349H44.2658V20.2684C44.2635 19.958 44.1236 19.6646 43.8839 19.4674C48.7477 16.1502 50.0015 9.51839 46.6843 4.65462C43.3671 -0.209147 36.7353 -1.46295 31.8716 1.85422C30.3215 2.91137 29.078 4.35877 28.2665 6.05042C25.7185 0.743741 19.3512 -1.49255 14.0445 1.05546C8.73787 3.60347 6.50158 9.97077 9.04945 15.2774C9.86035 16.9662 11.1019 18.4113 12.649 19.4674C12.4093 19.6646 12.2694 19.958 12.2672 20.2684V26.6681H9.19758L5.06018 25.6335C4.48874 25.4903 3.90943 25.8375 3.76637 26.4089C3.74517 26.4937 3.73438 26.5806 3.73438 26.6681V33.0678C3.73438 33.6568 4.21195 34.1344 4.80099 34.1344C4.88832 34.1344 4.97538 34.1237 5.06018 34.1024L9.19758 33.0678H12.2673V39.4675C12.2673 40.0565 12.7449 40.5341 13.3339 40.5341H24.0001V42.6673H22.9335C22.3444 42.6673 21.8668 43.1449 21.8668 43.7339C21.8668 44.323 22.3444 44.8006 22.9335 44.8006H23.4252L15.5589 62.5C15.3197 63.0384 15.5623 63.6687 16.1007 63.9079C16.6391 64.1471 17.2695 63.9045 17.5086 63.3661L25.76 44.8006H27.1999V62.933C27.1999 63.5221 27.6775 63.9996 28.2665 63.9996C28.8556 63.9996 29.3331 63.5221 29.3331 62.933V44.8006H30.7731L39.0244 63.3661C39.2636 63.9045 39.894 64.1471 40.4324 63.9079C40.9707 63.6687 41.2134 63.0384 40.9742 62.5L33.1079 44.8006H33.5996C34.1886 44.8006 34.6662 44.323 34.6662 43.7339C34.6662 43.1449 34.1886 42.6673 33.5996 42.6673H32.533V40.5341H43.1991C43.7882 40.5341 44.2658 40.0565 44.2658 39.4675V35.201H48.1461L54.2493 40.2877C54.441 40.4472 54.6826 40.5342 54.9319 40.5341H59.1984C59.7874 40.5341 60.265 40.0565 60.265 39.4675V20.2684C60.265 19.6794 59.7874 19.2018 59.1984 19.2018ZM8.00084 31.1681L5.86761 31.7015V28.0344L8.00084 28.5677V31.1681ZM12.2673 30.9346H10.1341V28.8013H12.2673V30.9346ZM31.4941 19.2018H25.039C26.4125 18.174 27.5194 16.8315 28.2665 15.2873C29.0137 16.8316 30.1206 18.174 31.4941 19.2018ZM10.1341 10.6689C10.1341 5.95629 13.9544 2.13594 18.667 2.13594C23.3796 2.13594 27.1999 5.95629 27.1999 10.6689C27.1999 15.3814 23.3796 19.2018 18.667 19.2018C13.9565 19.1966 10.1393 15.3793 10.1341 10.6689ZM30.3998 42.6673H26.1333V40.5341H30.3998V42.6673ZM42.1325 38.4009H14.4005V21.335H42.1325V38.4009ZM37.8661 19.2018C33.1535 19.2018 29.3331 15.3814 29.3331 10.6689C29.3385 5.95842 33.1556 2.14127 37.8661 2.13594C42.5786 2.13594 46.399 5.95629 46.399 10.6689C46.399 15.3816 42.5786 19.2018 37.8661 19.2018ZM47.4656 33.0678H44.2658V26.6681H47.4656V33.0678ZM58.1318 38.4009H55.318L49.5988 33.6342V26.1017L55.318 21.335H58.1318V38.4009Z" fill="#5A2E91"/>
<path d="M18.6688 6.40234C16.3125 6.40234 14.4023 8.31252 14.4023 10.6688C14.4023 13.0251 16.3125 14.9353 18.6688 14.9353C21.0251 14.9353 22.9353 13.0251 22.9353 10.6688C22.9353 8.31252 21.0251 6.40234 18.6688 6.40234ZM18.6688 12.802C17.4906 12.802 16.5356 11.847 16.5356 10.6688C16.5356 9.4906 17.4906 8.53558 18.6688 8.53558C19.847 8.53558 20.802 9.4906 20.802 10.6688C20.802 11.847 19.8469 12.802 18.6688 12.802Z" fill="#5A2E91"/>
<path d="M37.868 6.40234C35.5117 6.40234 33.6016 8.31252 33.6016 10.6688C33.6016 13.0251 35.5117 14.9353 37.868 14.9353C40.2243 14.9353 42.1345 13.0251 42.1345 10.6688C42.1345 8.31252 40.2243 6.40234 37.868 6.40234ZM37.868 12.802C36.6898 12.802 35.7348 11.847 35.7348 10.6688C35.7348 9.4906 36.6898 8.53558 37.868 8.53558C39.0462 8.53558 40.0013 9.4906 40.0013 10.6688C40.0013 11.847 39.0461 12.802 37.868 12.802Z" fill="#5A2E91"/>
<path d="M38.9341 23.4682H17.6018C17.0127 23.4682 16.5352 23.9458 16.5352 24.5348V35.201C16.5352 35.79 17.0127 36.2676 17.6018 36.2676H38.9341C39.5231 36.2676 40.0007 35.79 40.0007 35.201V24.5348C40.0007 23.9458 39.5231 23.4682 38.9341 23.4682ZM37.8675 34.1344H18.6684V25.6014H37.8675V34.1344Z" fill="#5A2E91"/>
<path d="M27.1996 28.8013H25.0664V30.9345H27.1996V28.8013Z" fill="#5A2E91"/>
<path d="M31.4653 28.8013H29.332V30.9345H31.4653V28.8013Z" fill="#5A2E91"/>
<path d="M35.7348 28.8013H33.6016V30.9345H35.7348V28.8013Z" fill="#5A2E91"/>
<path d="M22.934 28.8013H20.8008V30.9345H22.934V28.8013Z" fill="#5A2E91"/>
</g>
<defs>
<clipPath id="clip0">
<rect width="64" height="64" fill="white"/>
</clipPath>
</defs>
</svg>

<svg width="64" height="65" fill="none" xmlns="http://www.w3.org/2000/svg"><ellipse cx="35.5" cy="51" rx="13.5" ry="14" fill="#E30020"/><g clip-path="url(#clip0)" fill="#5A2E91"><path d="M59.198 19.202h-4.266c-.25 0-.491.087-.683.246l-6.103 5.087h-3.88v-4.267a1.047 1.047 0 00-.382-.8c4.864-3.318 6.117-9.95 2.8-14.813-3.317-4.864-9.949-6.118-14.812-2.8a10.66 10.66 0 00-3.605 4.195C25.718.744 19.35-1.493 14.043 1.055a10.66 10.66 0 00-1.396 18.412 1.045 1.045 0 00-.38.801v6.4h-3.07L5.06 25.634a1.066 1.066 0 00-1.326 1.034v6.4a1.067 1.067 0 001.326 1.034l4.138-1.034h3.07v6.4c0 .588.477 1.066 1.066 1.066H24v2.133h-1.067a1.067 1.067 0 000 2.134h.492L15.56 62.5a1.067 1.067 0 101.95.866l8.251-18.565h1.44v18.132a1.067 1.067 0 002.133 0V44.801h1.44l8.251 18.565a1.067 1.067 0 001.95-.866l-7.866-17.7h.492a1.067 1.067 0 000-2.133h-1.067v-2.133H43.2c.59 0 1.067-.477 1.067-1.066V35.2h3.88l6.103 5.087c.192.16.434.246.683.246h4.266c.59 0 1.067-.477 1.067-1.066v-19.2c0-.589-.478-1.066-1.067-1.066zM8.001 31.168l-2.133.534v-3.668L8 28.568v2.6zm4.266-.233h-2.133V28.8h2.133v2.134zm19.227-11.733H25.04a10.721 10.721 0 003.227-3.915 10.722 10.722 0 003.228 3.915zm-21.36-8.533a8.533 8.533 0 118.533 8.533 8.542 8.542 0 01-8.533-8.533zM30.4 42.667h-4.267v-2.133H30.4v2.133zm11.733-4.266H14.4V21.335h27.733v17.066zm-4.267-19.2a8.533 8.533 0 01-8.533-8.532 8.543 8.543 0 018.533-8.533 8.533 8.533 0 010 17.066zm9.6 13.867h-3.2v-6.4h3.2v6.4zM58.132 38.4h-2.814l-5.72-4.767v-7.532l5.72-4.767h2.814V38.4z"/><path d="M18.669 6.402a4.267 4.267 0 100 8.533 4.267 4.267 0 000-8.533zm0 6.4a2.133 2.133 0 110-4.266 2.133 2.133 0 010 4.266zm19.199-6.4a4.266 4.266 0 100 8.533 4.266 4.266 0 000-8.533zm0 6.4a2.133 2.133 0 110-4.266 2.133 2.133 0 010 4.266zm1.066 10.666H17.602c-.59 0-1.067.478-1.067 1.067V35.2c0 .589.478 1.067 1.067 1.067h21.332c.59 0 1.067-.478 1.067-1.067V24.535c0-.59-.478-1.067-1.067-1.067zm-1.066 10.666h-19.2v-8.533h19.2v8.533z"/><path d="M27.2 28.801h-2.134v2.134H27.2V28.8zm4.265 0h-2.133v2.134h2.133V28.8zm4.27 0h-2.133v2.134h2.133V28.8zm-12.801 0h-2.133v2.134h2.133V28.8z"/></g><defs><clipPath id="clip0"><path fill="#fff" d="M0 0h64v64H0z"/></clipPath></defs></svg>
